X:14489
T:Ronde de la chaise
A:FLANDRE
O:FRANCE
M:6/8
L:1/8
Q:1/4=180
K:Cdor
B3F2F|G2AB3:|
c2cc2d|e2dc3|
d2B BAB|c2cF3|
G2GA2A|B3B2 z/:||
